svgs/sharp-solid/keyboard-brightness-low.svg

<svg xmlns="http://www.w3.org/2000/svg" viewBox="0 0 640 512"><!--! Font Awesome Pro 6.6.0 by @fontawesome - https://fontawesome.com License - https://fontawesome.com/license (Commercial License) Copyright 2024 Fonticons, Inc. --><path d="M288 128l0 64 64 0 0-64-64 0zM160 178.7L114.7 224 160 269.3 205.3 224 160 178.7zM128 352l-64 0 0 64 64 0 0-64zm96 0l-32 0 0 64 32 0 192 0 32 0 0-64-32 0-192 0zm352 0l-64 0 0 64 64 0 0-64zM480 178.7L434.7 224 480 269.3 525.3 224 480 178.7z"/></svg>

<svg xmlns="http://www.w3.org/2000/svg" viewBox="0 0 640 512"><!--! Font Awesome Pro 6.4.2 by @fontawesome - https://fontawesome.com License - https://fontawesome.com/license (Commercial License) Copyright 2023 Fonticons, Inc. --><path d="M288 128v64h64V128H288zM160 178.7L114.7 224 160 269.3 205.3 224 160 178.7zM128 352H64v64h64V352zm96 0H192v64h32H416h32V352H416 224zm352 0H512v64h64V352zM480 178.7L434.7 224 480 269.3 525.3 224 480 178.7z"/></svg>
